; G-Code generated by Simplify3D(R) Version 4.0.0
; Jul 18, 2019 at 8:25:11 PM
; Settings Summary
;   processName,normal
;   applyToModels,P8_Connector
;   profileName,HYPERCUBE_Default_T0 (modified)
;   profileVersion,2019-04-01 18:19:55
;   baseProfile,hypercube_01
;   printMaterial,
;   printQuality,
;   printExtruders,
;   extruderName,Primary Extruder
;   extruderToolheadNumber,0
;   extruderDiameter,0.4
;   extruderAutoWidth,0
;   extruderWidth,0.4
;   extrusionMultiplier,0.98
;   extruderUseRetract,1
;   extruderRetractionDistance,5
;   extruderExtraRestartDistance,0
;   extruderRetractionZLift,0.3
;   extruderRetractionSpeed,1800
;   extruderUseCoasting,0
;   extruderCoastingDistance,0.2
;   extruderUseWipe,0
;   extruderWipeDistance,5
;   primaryExtruder,0
;   layerHeight,0.2
;   topSolidLayers,4
;   bottomSolidLayers,4
;   perimeterOutlines,2
;   printPerimetersInsideOut,1
;   startPointOption,2
;   startPointOriginX,0
;   startPointOriginY,0
;   sequentialIslands,0
;   spiralVaseMode,0
;   firstLayerHeightPercentage,100
;   firstLayerWidthPercentage,100
;   firstLayerUnderspeed,0.4
;   useRaft,0
;   raftExtruder,0
;   raftTopLayers,3
;   raftBaseLayers,2
;   raftOffset,3
;   raftSeparationDistance,0.14
;   raftTopInfill,100
;   aboveRaftSpeedMultiplier,0.3
;   useSkirt,1
;   skirtExtruder,0
;   skirtLayers,1
;   skirtOutlines,2
;   skirtOffset,5
;   usePrimePillar,0
;   primePillarExtruder,999
;   primePillarWidth,20
;   primePillarLocation,7
;   primePillarSpeedMultiplier,1
;   useOozeShield,0
;   oozeShieldExtruder,999
;   oozeShieldOffset,2
;   oozeShieldOutlines,1
;   oozeShieldSidewallShape,1
;   oozeShieldSidewallAngle,30
;   oozeShieldSpeedMultiplier,1
;   infillExtruder,0
;   internalInfillPattern,Rectilinear
;   externalInfillPattern,Rectilinear
;   infillPercentage,20
;   outlineOverlapPercentage,15
;   infillExtrusionWidthPercentage,100
;   minInfillLength,3
;   infillLayerInterval,1
;   internalInfillAngles,45,-45
;   overlapInternalInfillAngles,0
;   externalInfillAngles,45,-45
;   generateSupport,1
;   supportExtruder,0
;   supportInfillPercentage,30
;   supportExtraInflation,0
;   supportBaseLayers,0
;   denseSupportExtruder,0
;   denseSupportLayers,0
;   denseSupportInfillPercentage,70
;   supportLayerInterval,1
;   supportHorizontalPartOffset,0.4
;   supportUpperSeparationLayers,1
;   supportLowerSeparationLayers,1
;   supportType,0
;   supportGridSpacing,400
;   maxOverhangAngle,45
;   supportAngles,0
;   temperatureName,Primary Extruder
;   temperatureNumber,0
;   temperatureSetpointCount,1
;   temperatureSetpointLayers,1
;   temperatureSetpointTemperatures,210
;   temperatureStabilizeAtStartup,1
;   temperatureHeatedBed,0
;   temperatureRelayBetweenLayers,0
;   temperatureRelayBetweenLoops,0
;   fanLayers,1,2,3,4
;   fanSpeeds,30,30,80,100
;   blipFanToFullPower,0
;   adjustSpeedForCooling,1
;   minSpeedLayerTime,15
;   minCoolingSpeedSlowdown,5
;   increaseFanForCooling,0
;   minFanLayerTime,45
;   maxCoolingFanSpeed,100
;   increaseFanForBridging,0
;   bridgingFanSpeed,100
;   use5D,1
;   relativeEdistances,0
;   allowEaxisZeroing,1
;   independentExtruderAxes,0
;   includeM10123,0
;   stickySupport,1
;   applyToolheadOffsets,0
;   gcodeXoffset,0
;   gcodeYoffset,0
;   gcodeZoffset,0
;   overrideMachineDefinition,1
;   machineTypeOverride,0
;   strokeXoverride,200
;   strokeYoverride,200
;   strokeZoverride,310
;   originOffsetXoverride,0
;   originOffsetYoverride,0
;   originOffsetZoverride,0
;   homeXdirOverride,-1
;   homeYdirOverride,-1
;   homeZdirOverride,-1
;   flipXoverride,1
;   flipYoverride,-1
;   flipZoverride,1
;   toolheadOffsets,0,0|0,0|0,0|0,0|0,0|0,0
;   overrideFirmwareConfiguration,0
;   firmwareTypeOverride,RepRap (Marlin/Repetier/Sprinter)
;   GPXconfigOverride,r2
;   baudRateOverride,115200
;   overridePrinterModels,0
;   printerModelsOverride
;   startingGcode,M107; Fan off,G28 ; home all axes,G92 E0,G1 E200 F700,G92 E0,G4 S5,G1 X100 Y100,G4 S1,G1 Z0.2,
;   layerChangeGcode,
;   retractionGcode,
;   toolChangeGcode,
;   endingGcode,G1 X0 Y0,G92 E0; Zero Extruder,G91; Relative Coordinates,G1 E-5 F2500; Fast Retract 5mm,G1 E2 F2500; Fast Reinsert 2mm,G1 E-25 F2500; Fast Retract 67mm,G1 E-67 F1800; Fast Retract 67mm,,M104 S0 ; turn off extruder,M140 S0 ; turn off bed,G1 X0 Y0;,M84 ; disable motors,M107; Fan off,
;   exportFileFormat,gcode
;   celebration,0
;   celebrationSong,Random Song
;   postProcessing,curl -k -H "X-Api-Key: 961739B779CE47A7AFC5B8C7AF48E0C4" -F "select=true" -F "print=false" -F "file=@[output_filepath]" "http://192.168.0.170/api/files/local" {STRIP "; postProcessing"}
;   defaultSpeed,2100
;   outlineUnderspeed,0.5
;   solidInfillUnderspeed,1.2
;   supportUnderspeed,1.2
;   rapidXYspeed,6600
;   rapidZspeed,1500
;   minBridgingArea,50
;   bridgingExtraInflation,0
;   bridgingExtrusionMultiplier,1
;   bridgingSpeedMultiplier,1
;   useFixedBridgingAngle,0
;   fixedBridgingAngle,0
;   applyBridgingToPerimeters,0
;   filamentDiameters,1.75|1.75|1.75|1.75|1.75|1.75
;   filamentPricesPerKg,25|46|46|46|46|46
;   filamentDensities,1.25|1.25|1.25|1.25|1.25|1.25
;   useMinPrintHeight,0
;   minPrintHeight,94
;   useMaxPrintHeight,0
;   maxPrintHeight,5
;   useDiaphragm,0
;   diaphragmLayerInterval,20
;   robustSlicing,1
;   mergeAllIntoSolid,0
;   onlyRetractWhenCrossingOutline,1
;   retractBetweenLayers,1
;   useRetractionMinTravel,0
;   retractionMinTravel,3
;   retractWhileWiping,0
;   onlyWipeOutlines,1
;   avoidCrossingOutline,1
;   maxMovementDetourFactor,3
;   toolChangeRetractionDistance,12
;   toolChangeExtraRestartDistance,-0.5
;   toolChangeRetractionSpeed,600
;   externalThinWallType,0
;   internalThinWallType,2
;   thinWallAllowedOverlapPercentage,10
;   singleExtrusionMinLength,1
;   singleExtrusionMinPrintingWidthPercentage,50
;   singleExtrusionMaxPrintingWidthPercentage,200
;   singleExtrusionEndpointExtension,0.2
;   horizontalSizeCompensation,0
G90
M82
M106 S76
M104 S200 T0
M109 S200 T0
M107; Fan off
G92 E0
G1 E200 F700
G92 E0
G4 S5
G1 X100 Y100
G4 S1
G1 Z0.2
G92 E0
G1 E-5.0000 F1800
G1 Z0.500 F1500
; process normal
; layer 1, Z = 0.200
T0
; tool H0.200 W0.400
; skirt
G1 X75.692 Y36.924 F6600
G1 Z0.200 F1500
G1 E0.0000 F540
G92 E0
G1 X75.704 Y36.900 E0.0009 F840
G1 X75.936 Y36.500 E0.0159
G1 X75.950 Y36.478 E0.0168
G1 X76.715 Y35.385 E0.0603
G1 X76.731 Y35.364 E0.0611
G1 X77.029 Y35.009 E0.0762
G1 X77.046 Y34.990 E0.0771
G1 X77.990 Y34.046 E0.1206
G1 X78.009 Y34.029 E0.1214
G1 X78.364 Y33.731 E0.1365
G1 X78.384 Y33.715 E0.1374
G1 X79.478 Y32.950 E0.1809
G1 X79.500 Y32.936 E0.1817
G1 X79.900 Y32.704 E0.1968
G1 X79.924 Y32.692 E0.1976
G1 X81.133 Y32.128 E0.2411
G1 X81.157 Y32.118 E0.2420
G1 X81.592 Y31.960 E0.2571
G1 X81.617 Y31.952 E0.2579
G1 X82.906 Y31.607 E0.3014
G1 X82.931 Y31.601 E0.3023
G1 X83.387 Y31.521 E0.3174
G1 X83.413 Y31.517 E0.3182
G1 X84.627 Y31.411 E0.3579
G1 X84.640 Y31.410 E0.3584
G1 X84.871 Y31.400 E0.3659
G1 X84.884 Y31.400 E0.3663
G1 X115.116 Y31.400 E1.3517
G1 X115.129 Y31.400 E1.3521
G1 X115.360 Y31.410 E1.3597
G1 X115.373 Y31.411 E1.3601
G1 X116.587 Y31.517 E1.3998
G1 X116.613 Y31.521 E1.4007
G1 X117.069 Y31.601 E1.4158
G1 X117.094 Y31.607 E1.4166
G1 X118.383 Y31.952 E1.4601
G1 X118.408 Y31.960 E1.4610
G1 X118.843 Y32.118 E1.4760
G1 X118.867 Y32.128 E1.4769
G1 X120.076 Y32.692 E1.5204
G1 X120.100 Y32.704 E1.5212
G1 X120.500 Y32.936 E1.5363
G1 X120.522 Y32.950 E1.5372
G1 X121.616 Y33.715 E1.5807
G1 X121.636 Y33.731 E1.5815
G1 X121.991 Y34.029 E1.5966
G1 X122.010 Y34.046 E1.5975
G1 X122.954 Y34.990 E1.6410
G1 X122.971 Y35.009 E1.6418
G1 X123.269 Y35.364 E1.6569
G1 X123.285 Y35.385 E1.6578
G1 X124.050 Y36.478 E1.7013
G1 X124.064 Y36.500 E1.7021
G1 X124.296 Y36.900 E1.7172
G1 X124.308 Y36.924 E1.7180
G1 X124.872 Y38.133 E1.7615
G1 X124.882 Y38.157 E1.7624
G1 X125.040 Y38.592 E1.7775
G1 X125.048 Y38.617 E1.7783
G1 X125.393 Y39.906 E1.8218
G1 X125.399 Y39.931 E1.8227
G1 X125.479 Y40.387 E1.8378
G1 X125.483 Y40.413 E1.8386
G1 X125.589 Y41.627 E1.8783
G1 X125.590 Y41.640 E1.8788
G1 X125.600 Y41.871 E1.8863
G1 X125.600 Y41.884 E1.8867
G1 X125.600 Y158.116 E5.6753
G1 X125.600 Y158.129 E5.6757
G1 X125.590 Y158.360 E5.6832
G1 X125.589 Y158.373 E5.6837
G1 X125.483 Y159.587 E5.7234
G1 X125.479 Y159.613 E5.7242
G1 X125.399 Y160.069 E5.7393
G1 X125.393 Y160.094 E5.7402
G1 X125.048 Y161.383 E5.7837
G1 X125.040 Y161.408 E5.7845
G1 X124.882 Y161.843 E5.7996
G1 X124.872 Y161.867 E5.8005
G1 X124.308 Y163.076 E5.8440
G1 X124.296 Y163.100 E5.8448
G1 X124.064 Y163.500 E5.8599
G1 X124.050 Y163.522 E5.8607
G1 X123.285 Y164.615 E5.9042
G1 X123.269 Y164.636 E5.9051
G1 X122.971 Y164.991 E5.9202
G1 X122.954 Y165.010 E5.9210
G1 X122.010 Y165.954 E5.9645
G1 X121.991 Y165.971 E5.9654
G1 X121.636 Y166.269 E5.9805
G1 X121.615 Y166.285 E5.9813
G1 X120.522 Y167.050 E6.0248
G1 X120.500 Y167.064 E6.0257
G1 X120.100 Y167.296 E6.0408
G1 X120.076 Y167.308 E6.0416
G1 X118.867 Y167.872 E6.0851
G1 X118.843 Y167.882 E6.0860
G1 X118.408 Y168.040 E6.1010
G1 X118.383 Y168.048 E6.1019
G1 X117.094 Y168.393 E6.1454
G1 X117.069 Y168.399 E6.1462
G1 X116.613 Y168.479 E6.1613
G1 X116.587 Y168.483 E6.1622
G1 X115.373 Y168.589 E6.2019
G1 X115.360 Y168.590 E6.2023
G1 X115.129 Y168.600 E6.2099
G1 X115.116 Y168.600 E6.2103
G1 X84.884 Y168.600 E7.1957
G1 X84.871 Y168.600 E7.1961
G1 X84.640 Y168.590 E7.2036
G1 X84.627 Y168.589 E7.2041
G1 X83.413 Y168.483 E7.2438
G1 X83.387 Y168.479 E7.2446
G1 X82.931 Y168.399 E7.2597
G1 X82.906 Y168.393 E7.2606
G1 X81.617 Y168.048 E7.3041
G1 X81.592 Y168.040 E7.3049
G1 X81.157 Y167.882 E7.3200
G1 X81.133 Y167.872 E7.3209
G1 X79.924 Y167.308 E7.3644
G1 X79.900 Y167.296 E7.3652
G1 X79.500 Y167.064 E7.3803
G1 X79.478 Y167.050 E7.3811
G1 X78.385 Y166.285 E7.4246
G1 X78.364 Y166.269 E7.4255
G1 X78.009 Y165.971 E7.4406
G1 X77.990 Y165.954 E7.4414
G1 X77.046 Y165.010 E7.4849
G1 X77.029 Y164.991 E7.4858
G1 X76.731 Y164.636 E7.5009
G1 X76.715 Y164.615 E7.5017
G1 X75.950 Y163.522 E7.5452
G1 X75.936 Y163.500 E7.5461
G1 X75.704 Y163.100 E7.5611
G1 X75.692 Y163.076 E7.5620
G1 X75.128 Y161.867 E7.6055
G1 X75.118 Y161.843 E7.6063
G1 X74.960 Y161.408 E7.6214
G1 X74.952 Y161.383 E7.6223
G1 X74.607 Y160.094 E7.6658
G1 X74.601 Y160.069 E7.6666
G1 X74.521 Y159.613 E7.6817
G1 X74.517 Y159.587 E7.6826
G1 X74.411 Y158.373 E7.7223
G1 X74.410 Y158.360 E7.7227
G1 X74.400 Y158.129 E7.7303
G1 X74.400 Y158.116 E7.7307
G1 X74.400 Y41.884 E11.5192
G1 X74.400 Y41.871 E11.5197
G1 X74.410 Y41.640 E11.5272
G1 X74.411 Y41.627 E11.5276
G1 X74.517 Y40.413 E11.5673
G1 X74.521 Y40.387 E11.5682
G1 X74.601 Y39.931 E11.5833
G1 X74.607 Y39.906 E11.5841
G1 X74.952 Y38.617 E11.6276
G1 X74.960 Y38.592 E11.6285
G1 X75.118 Y38.157 E11.6436
G1 X75.128 Y38.133 E11.6444
G1 X75.692 Y36.924 E11.6879
G1 X76.051 Y37.101 F6600
G92 E0
G1 X76.055 Y37.093 E0.0003 F840
G1 X76.278 Y36.707 E0.0148
G1 X76.283 Y36.700 E0.0151
G1 X77.038 Y35.621 E0.0580
G1 X77.043 Y35.614 E0.0583
G1 X77.329 Y35.273 E0.0728
G1 X77.335 Y35.267 E0.0731
G1 X78.267 Y34.335 E0.1160
G1 X78.273 Y34.329 E0.1163
G1 X78.614 Y34.043 E0.1308
G1 X78.621 Y34.038 E0.1311
G1 X79.700 Y33.283 E0.1740
G1 X79.707 Y33.278 E0.1743
G1 X80.093 Y33.055 E0.1888
G1 X80.101 Y33.051 E0.1891
G1 X81.294 Y32.495 E0.2320
G1 X81.302 Y32.491 E0.2323
G1 X81.721 Y32.339 E0.2468
G1 X81.729 Y32.336 E0.2471
G1 X83.001 Y31.996 E0.2900
G1 X83.010 Y31.994 E0.2903
G1 X83.448 Y31.916 E0.3048
G1 X83.457 Y31.915 E0.3051
G1 X84.658 Y31.810 E0.3444
G1 X84.662 Y31.810 E0.3446
G1 X84.884 Y31.800 E0.3518
G1 X84.889 Y31.800 E0.3520
G1 X115.111 Y31.800 E1.3371
G1 X115.116 Y31.800 E1.3372
G1 X115.338 Y31.810 E1.3445
G1 X115.342 Y31.810 E1.3446
G1 X116.543 Y31.915 E1.3839
G1 X116.552 Y31.916 E1.3842
G1 X116.990 Y31.994 E1.3987
G1 X116.999 Y31.996 E1.3990
G1 X118.271 Y32.336 E1.4419
G1 X118.279 Y32.339 E1.4422
G1 X118.698 Y32.491 E1.4567
G1 X118.706 Y32.495 E1.4570
G1 X119.899 Y33.051 E1.4999
G1 X119.907 Y33.055 E1.5002
G1 X120.293 Y33.278 E1.5147
G1 X120.300 Y33.283 E1.5150
G1 X121.379 Y34.038 E1.5579
G1 X121.386 Y34.043 E1.5582
G1 X121.727 Y34.329 E1.5727
G1 X121.733 Y34.335 E1.5730
G1 X122.665 Y35.267 E1.6159
G1 X122.671 Y35.273 E1.6162
G1 X122.957 Y35.614 E1.6307
G1 X122.962 Y35.621 E1.6310
G1 X123.717 Y36.700 E1.6739
G1 X123.722 Y36.707 E1.6742
G1 X123.945 Y37.093 E1.6887
G1 X123.949 Y37.101 E1.6890
G1 X124.505 Y38.294 E1.7319
G1 X124.509 Y38.302 E1.7322
G1 X124.661 Y38.721 E1.7467
G1 X124.664 Y38.729 E1.7470
G1 X125.004 Y40.001 E1.7900
G1 X125.006 Y40.009 E1.7902
G1 X125.084 Y40.448 E1.8048
G1 X125.085 Y40.457 E1.8050
G1 X125.190 Y41.658 E1.8443
G1 X125.190 Y41.662 E1.8445
G1 X125.200 Y41.884 E1.8517
G1 X125.200 Y41.889 E1.8519
G1 X125.200 Y158.111 E5.6401
G1 X125.200 Y158.116 E5.6403
G1 X125.190 Y158.338 E5.6475
G1 X125.190 Y158.342 E5.6477
G1 X125.085 Y159.543 E5.6870
G1 X125.084 Y159.552 E5.6873
G1 X125.006 Y159.991 E5.7018
G1 X125.004 Y159.999 E5.7021
G1 X124.664 Y161.271 E5.7450
G1 X124.661 Y161.279 E5.7453
G1 X124.509 Y161.698 E5.7598
G1 X124.505 Y161.706 E5.7601
G1 X123.949 Y162.899 E5.8030
G1 X123.945 Y162.907 E5.8033
G1 X123.722 Y163.293 E5.8178
G1 X123.717 Y163.300 E5.8181
G1 X122.962 Y164.379 E5.8610
G1 X122.957 Y164.386 E5.8613
G1 X122.671 Y164.727 E5.8758
G1 X122.665 Y164.733 E5.8761
G1 X121.733 Y165.665 E5.9190
G1 X121.727 Y165.671 E5.9193
G1 X121.386 Y165.957 E5.9338
G1 X121.379 Y165.962 E5.9341
G1 X120.300 Y166.717 E5.9770
G1 X120.293 Y166.722 E5.9773
G1 X119.907 Y166.945 E5.9918
G1 X119.899 Y166.949 E5.9921
G1 X118.706 Y167.505 E6.0350
G1 X118.698 Y167.509 E6.0353
G1 X118.279 Y167.661 E6.0498
G1 X118.271 Y167.664 E6.0501
G1 X116.999 Y168.004 E6.0930
G1 X116.991 Y168.006 E6.0933
G1 X116.552 Y168.084 E6.1078
G1 X116.543 Y168.085 E6.1081
G1 X115.342 Y168.190 E6.1474
G1 X115.338 Y168.190 E6.1476
G1 X115.116 Y168.200 E6.1548
G1 X115.111 Y168.200 E6.1550
G1 X84.889 Y168.200 E7.1401
G1 X84.884 Y168.200 E7.1402
G1 X84.662 Y168.190 E7.1475
G1 X84.658 Y168.190 E7.1476
G1 X83.457 Y168.085 E7.1869
G1 X83.448 Y168.084 E7.1872
G1 X83.009 Y168.006 E7.2017
G1 X83.001 Y168.004 E7.2020
G1 X81.729 Y167.664 E7.2449
G1 X81.721 Y167.661 E7.2452
G1 X81.302 Y167.509 E7.2597
G1 X81.294 Y167.505 E7.2600
G1 X80.101 Y166.949 E7.3029
G1 X80.093 Y166.945 E7.3032
G1 X79.707 Y166.722 E7.3177
G1 X79.700 Y166.717 E7.3180
G1 X78.621 Y165.962 E7.3609
G1 X78.614 Y165.957 E7.3612
G1 X78.273 Y165.671 E7.3757
G1 X78.267 Y165.665 E7.3760
G1 X77.335 Y164.733 E7.4189
G1 X77.329 Y164.727 E7.4192
G1 X77.043 Y164.386 E7.4337
G1 X77.038 Y164.379 E7.4340
G1 X76.283 Y163.300 E7.4769
G1 X76.278 Y163.293 E7.4772
G1 X76.055 Y162.907 E7.4917
G1 X76.051 Y162.899 E7.4920
G1 X75.495 Y161.706 E7.5349
G1 X75.491 Y161.698 E7.5352
G1 X75.339 Y161.279 E7.5497
G1 X75.336 Y161.271 E7.5500
G1 X74.996 Y159.999 E7.5929
G1 X74.994 Y159.990 E7.5932
G1 X74.916 Y159.552 E7.6078
G1 X74.915 Y159.543 E7.6080
G1 X74.810 Y158.342 E7.6473
G1 X74.810 Y158.338 E7.6475
G1 X74.800 Y158.116 E7.6547
G1 X74.800 Y158.111 E7.6549
G1 X74.800 Y41.889 E11.4431
G1 X74.800 Y41.884 E11.4433
G1 X74.810 Y41.662 E11.4505
G1 X74.810 Y41.658 E11.4507
G1 X74.915 Y40.457 E11.4900
G1 X74.916 Y40.448 E11.4902
G1 X74.994 Y40.009 E11.5048
G1 X74.996 Y40.001 E11.5051
G1 X75.336 Y38.729 E11.5480
G1 X75.339 Y38.721 E11.5483
G1 X75.491 Y38.302 E11.5628
G1 X75.495 Y38.294 E11.5631
G1 X76.051 Y37.101 E11.6060
G92 E0
G1 E-5.0000 F1800
G1 Z0.500 F1500
; inner perimeter
G1 X80.840 Y39.598 F6600
G1 X80.833 Y39.613 F6600
G1 X81.191 Y39.801 F6600
G1 Z0.200 F1500
G1 E0.0000 F1800
G92 E0
G1 X81.631 Y39.173 E0.0250 F630
G1 X82.173 Y38.631 E0.0500
G1 X82.801 Y38.191 E0.0750
G1 X83.496 Y37.867 E0.0999
G1 X84.236 Y37.669 E0.1249
G1 X85.026 Y37.600 E0.1508
G1 X114.974 Y37.600 E1.1269
G1 X115.764 Y37.669 E1.1528
G1 X116.504 Y37.867 E1.1777
G1 X117.199 Y38.191 E1.2027
G1 X117.827 Y38.631 E1.2277
G1 X118.369 Y39.173 E1.2527
G1 X118.809 Y39.801 E1.2777
G1 X119.132 Y40.496 E1.3027
G1 X119.331 Y41.236 E1.3277
G1 X119.400 Y42.026 E1.3535
G1 X119.400 Y157.974 E5.1328
G1 X119.331 Y158.764 E5.1587
G1 X119.132 Y159.504 E5.1836
G1 X118.809 Y160.199 E5.2086
